X:358
T: Bu pa huangshui chong shanglai
N: C1307
O: China,Henan, Kaifeng
S: IV, 116]
N: In Shandong gibt es viele dieser Arbeitslieder, in Henan weniger.
N: Sehr typisch fuer dieses Thema: Ueberschwemmung des Huanghe
N: Vereinzelt Verzierungen.
R: Haozi, Dawo haozi.
M: 2/4
L: 1/8
K: G
BGAA | AEG2 | G2dd | G2G2 |
GABd | G2G2 | G2dd | G2G2 |
GBAG | AAE2 | G2dd | G2G2 |
GAdE | G2G2 | G2dd | G2G2

@@@ Tune index: 6359
